X: 34811
T: Road To The Glen, The
R: reel
M: 4/4
K: Dminor
DE|:FdcB AGFA|G2dG AGdG|FEFG Acde|fedc A=Bce|
d2de fgag|fedc AFDE|FEFG AGFG|1 Addc dADE:|2 Addc d3e||
f2ag fedf|eccc Gcec|f2ag fdde|fdec Adde|
f2fg afge|fedc AFDE|F3G AGFG|Addc d3e|
f2ag fedf|eccc Gcec|f2ag fdde|fdec Adde|
f2df dfdf|e2ce cece|eege fedc|A=Bce d2||

